X:1
T:Angel Voices (Sullivan) 85.85.87
T:Arthur Seymour Sullivan, 1872
T:Angel Voices (Sullivan) 85.85.87
T:Public Domain
C:Arthur Seymour Sullivan, 1872
Z:Public Domain
%%score ( 1 2 ) ( 3 4 )
L:1/8
M:6/8
K:F
V:1 treble 
V:2 treble 
V:3 bass 
V:4 bass 
V:1
 [FA]2 [FA] (AB)[FA] | [EG]2 [_E_G] [=E=G]2 C | [DF]2 [DF] [EG]2 [EG] | [FA]6 | %4
 [FA]2 [FA] (AB)[FA] | G2 G [Gc]2 [EG] | [CE]2 [CE] (EF)[_B,D] | C6 | [_Ec]2 [Fd] [Ec]2 [DB] | %9
 [_Ec]2 [Fd] [Ec]2 [DB] | [Fd]3 [Ge]3 | [Ff]3 [Fc]3 | [FA]3 [EA]2 [EG] | F6 |] %14
V:2
 x3 F2 x | x5 C | x6 | x6 | x3 F2 x | G2 G x3 | x3 =B,2 x | C6 | x6 | x6 | x6 | x6 | x6 | F6 |] %14
V:3
 [F,C]2 [F,C] (CD)[F,C] | [C,B,]2 [C,A,] [C,B,]2 [C,B,] | [D,A,]2 [D,A,] [C,C]2 [C,C] | [F,C]6 | %4
 [F,C]2 [F,C] (CD)[F,C] | [F,=B,]2 [F,B,] [E,C]2 [C,C] | G,2 G, [G,,G,]2 [G,,F,] | [C,E,]6 | %8
 [F,A,]2 [F,A,] [B,,B,]2 [B,,B,] | [F,A,]2 [F,A,] [B,,B,]2 [B,,B,] | [B,D]3 [B,C]3 | %11
 [A,C]3 [F,A,]3 | [C,C]3 [C,B,]2 [C,B,] | [F,A,]6 |] %14
V:4
 x3 F,2 x | x6 | x6 | x6 | x3 F,2 x | x6 | G,2 G, x3 | x6 | x6 | x6 | x6 | x6 | x6 | x6 |] %14

